icons/global/user-settings/windows-settings.svg

<svg xmlns="http://www.w3.org/2000/svg" width="24" height="24" fill="none">
  <path fill="#000" d="M4 11.526V6.553l5.684-1.25v6.138L4 11.526ZM20.105 3v8.29l-9.473.142V5.094L20.105 3ZM4 12.474l5.684.085v6.452L4 17.92v-5.447.001Zm16.105.237V21l-9.473-1.81v-6.622l9.473.143Z"/>
</svg>

<svg width="24" height="24" viewBox="0 0 24 24" fill="none" xmlns="http://www.w3.org/2000/svg">
<path d="M4 11.526V6.553L9.684 5.303V11.441L4 11.526ZM20.105 3V11.29L10.632 11.432V5.094L20.105 3ZM4 12.474L9.684 12.559V19.011L4 17.92V12.473V12.474ZM20.105 12.711V21L10.632 19.19V12.568L20.105 12.711Z" fill="black"/>
</svg>
